X: 1
T: Hommage \`a Edmond Parizeau (Pariso, Pariseau)
C: Marcel Messervier
R: reel
Z: 2020 John Chambers <jc:trillian.mit.edu> 2020-7-11
S: https://www.facebook.com/groups/Fiddletuneoftheday/
S: https://www.facebook.com/groups/Fiddletuneoftheday/photos/
M: C
L: 1/8
K: A
ABcd |:\
"A"eAAe AAeA | AAeA (3efe ed | ceAB cAeA | ceAc dedc | "E"B4 BABc |
[1 (3BcB Ac efed | "A"c2B2 ABcA | "E"E4 ABcd :|\
[2 "E"e2d2 c2B2 | "A"Afed "E"cdBc | "A"A2c2 (3BcB A2 |
|:\
"D"a4 f4 | d3A d2fd | "A"e4 efec | A2c2 (3BcB A2 | "E"B4 BABc |
e2d2 c2B2 |[1 cBAc ecef | e2c2 (3BcB A2 :|\
[2 "A"cfed "E"cdBc | "A"A4 |]
